assets/img/icons/ui/printer.svg

<?xml version="1.0" encoding="utf-8"?>
<!-- Generated by IcoMoon.io -->
<!DOCTYPE svg PUBLIC "-//W3C//DTD SVG 1.1//EN" "http://www.w3.org/Graphics/SVG/1.1/DTD/svg11.dtd">
<svg version="1.1" xmlns="http://www.w3.org/2000/svg" xmlns:xlink="http://www.w3.org/1999/xlink" width="32" height="32" viewBox="0 0 32 32">
<path fill="rgb(0, 0, 0)" d="M6 18v14h20v-14h-20zM22 28h-12v-6h12v6zM6 0v14h20v-14h-20zM22 10h-12v-6h12v6zM0 10v16h10v-4h-6v-8h24v8h-4v4h8v-16z"></path>
</svg>

<svg xmlns="http://www.w3.org/2000/svg" width="32" height="32" viewBox="0 0 32 32"><path d="M6 18v14h20V18H6zm16 10H10v-6h12v6zM6 0v14h20V0H6zm16 10H10V4h12v6zM0 10v16h10v-4H4v-8h24v8h-4v4h8V10z"/></svg>
